X: 3362
T: TRILL HORNPIPE
R: Hornpipe
%R: hornpipe, shottish
B: James Kerr "Merry Melodies" v.3 p.40 #362
Z: 2016 John Chambers <jc:trillian.mit.edu>
M: C
L: 1/8
K: Bb
|:\
(FB)TB2 G>B_G>B | (FB)TB2 G>B_G>B |\
F>BB>c d>cd>g | f>=e_e>c A>FE>C |\
(FB)TB2 G>B_G>B | (FB)TB2 G>B_G>B |\
F>BB>c d>cd>g | f>=e_e>c B4 :|
|:\
d'4 ^c'2=c'2 | b2b2 a4 |\
!2!g>^fg>b a>fd2 | g>^fg>b a>fd2 |\
d'4 ^c'2=c'2 | b2b2 a4 |\
g>^fg>b a>fd2 | (3DED (3CB,A, G,2z2 :|

%%sep 1 1 500
%%sep 1 1 500

